X:1
T:Not, Celia, that I juster am
T:Elizabeth Turner (17?? - 1756) Edited by Mick Swithinbank and Jonathan Goodliffe
T:Sir Charles Sedley (1649-1701)
T:Not, Celia, that I juster am
T:Copyright © 
T:Copyright © 
C:Elizabeth Turner (17?? - 1756)
C:Edited by Mick Swithinbank and Jonathan Goodliffe
Z:Sir Charles Sedley (1649-1701)
Z:Copyright ©
%%score 1 { ( 2 4 ) | 3 }
L:1/8
Q:1/4=80
M:2/2
K:Eb
V:1 treble nm="Soprano"
V:2 treble nm="Harpsichord" snm="Hpsd."
V:4 treble 
V:3 bass 
V:1
"^Andante" z2 | z8 | z8 | z8 | z6 |: z B | e2 (3(fed) (e<c) (B<A) | G2 (e<c) B2 z d | %8
w: |||||Not,|Ce- lia _ _ that _ I _|just- er _ am, or|
w: |||||All|that in _ _ wo- * man _|is a- * dored in|
 e2 (d<c) (B<G) (c<A) | (G2 F2) z2 B2 | (A<G) (F<E) e2 z c | (B<=A) (G<F) B2 z Tc | %12
w: bet- ter _ than _ the _|rest, _ for|I _ each _ hour could|change _ like _ them were|
w: thy dear _ self _ I _|find, _ for|the _ whole _ sex can|but _ af- * ford the|
 (d<B) (e<c) (d>f) (=A>c) | B4 z4 | z8 | z6 | B2 | f2 e>d e3 f | (g<e) (d<c){c} =B2 z c | %19
w: not _ my _ heart _ at _|rest.|||But|I am _ tied to|ve- * ry _ _ by|
w: hand- * some _ and _ the _|kind.|||Why|then should _ I seek|fur- * ther _ _ and|
 (d<G) (f<d) (e<c) (d<=B) |{=B} c4 z2{f} ed/c/ | (_Be) g2 (Ad) f2 |{f} e3 G{G} F2 z B | %23
w: eve- * ry _ thought _ I _|_|face _ I on- * ly|* to * thy|
w: still _ make _ love _ a- *||change _ it- self _ can|* no * 'tis|
 (A<G) (F<E) e2 =A2 |{=A} B4 z2 _A2 |{A} G2 FE (3cAG (3FED | E4 z4 | z8 | z6 :| %29
w: heart _ I _ on- ly|* Thy|* I _ on- * * ly _ _|crave.|||
w: ea- * sy _ to be|* 'Tis|* sy _ to _ _ be _ _|true.|||
V:2
"^Andante" B2 | e2 (3fed (e<c)(B<A) | G>B e>g{g} f3 g/a/ | %3
 b/4g/4Tg3/2 a/4f/4Tf3/2 g/4d/4Td3/2 e<B | A<G F>G E2 |: z B | e2 (3(fed) (e<c) (B<A) | %7
 G2 (e<c) B2 z d | e2 (d<c) (B<G) (c<A) | (G2 F2) z2 B2 | (A<G) (F<E) e2 z c | %11
 (B<=A) (G<F) B2 z Tc | (d<B) (e<c) (d>f) (=A>c) | z2 z b/<=e/ f3 (_e/<c/) | %14
 d<B f/4c/4Tc3/2 f/4d/4Td3/2 c<T=A | B6 | B2 | f2 e>d e3 f | (g<e) (d<c){c} =B2 z c | %19
 (d<G) (f<d) (e<c) (d<=B) |{=B} c4 z2{f} ed/c/ | (_Be) g2 (Ad) f2 |{f} e3 G{G} F2 z B | %23
 (A<G) (F<E) e2 =A2 |{=A} B4 z2 _A2 |{A} G2 FE (3cAG (3FED | z2 (3z GB B2 (3AGA | %27
 (3(Ggf) (3(edc) (3(BGB) (3(AFD) | x2- (3x B,D E2 :| %29
V:3
 z2 | E,2 B,2 C2 D2 | E2 E,2 B,2 B,,2 | B,,2 B,,2 B,,A,G,E, | A,2 B,2 E,2 |: E,, z | %6
w: |* * * 6~5|* * * 7|6~4 5~3 6~4 4~2 6 *|6 * *||
 E,2 B,,2 C,2 D,2 | E,2 E,2 E,2 F,2 | G,2 A,2 G,2 A,2 | B,2 B,,C, D,2 B,,2 | E,2 G,2 C,2 E,2 | %11
w: * * * 6~5|* 6~4 5~3 6|6 * 6 *|6~4 5~3 * 6 *|* 6 5 6|
 F,2 E,2 D,2 =A,,2 | B,,2 G,E, F,2 F,,2 | B,,2 B,2 =A,2 F,2 | B,2 E,2 F,2 F,,2 | B,,2 D,>F, B,2 | %16
w: * 4~2 6 *|* 6 * 6~4 5|* 6~4 6 *|* 6 6~4 5||
 z2 | B,,3 _A,, G,,B,,C,D, | E,2 F,2 G,2 C2 | =B,2 G,2 C2 G,2 | C,2 D,2 E,2 C,2 | G,2 E,2 F,2 B,2 | %22
w: |* 4~2 6 * * 6|* 6~5 * *|6 7 * *|* * 6 *|6 * 6 7|
 G,2 =A,2 B,2 D,2 | E,2 G,2 C,2 F,E, | D,2 B,,C, D,2 B,,2 | E,2 G,2 A,2 B,2 | E,2 G,2 D,2 B,,2 | %27
w: 6 7 * 6|* 6 * * *|6 * * 6 7|* 6 6 *|* 6 6 *|
 E,2 A,2 B,2 B,,2 | E,2 B,,2 E,,2 :| %29
w: * * 6~4 5~3||
V:4
 x2 | x8 | x8 | x8 | x6 |: x2 | x8 | x8 | x8 | x8 | x8 | x8 | x8 | [Bx]4 x4 | x8 | x6 | x2 | x8 | %18
 x8 | x8 | x8 | x8 | x8 | x8 | x8 | x8 | E4 x4 | x8 | x6 :| %29

